docs/img/icons/hero/circle.svg

<svg width="46" height="46" viewBox="0 0 46 46" fill="none" xmlns="http://www.w3.org/2000/svg">
<path d="M28.0658 45.7749C27.5806 45.9135 27.0674 45.8493 26.6393 45.5963C26.2111 45.3433 25.903 44.9223 25.7827 44.426C25.6624 43.9296 25.7397 43.3985 25.9977 42.9495C26.2557 42.5005 26.6733 42.1704 27.1585 42.0318C31.2557 40.8622 34.8935 38.3194 37.489 34.8108C40.0845 31.3023 41.4874 27.0312 41.473 22.6819C41.4587 18.3325 40.0278 14.1567 37.4097 10.8235C34.7916 7.49025 31.1378 5.19262 27.0338 4.29872C22.9297 3.40482 18.613 3.9664 14.7754 5.89347C10.9377 7.82053 7.80119 11.0015 5.8684 14.9268C3.93561 18.852 3.31843 23.2943 4.11575 27.5418C4.91307 31.7893 7.07874 35.5962 10.2657 38.3524C10.6416 38.678 10.8728 39.1477 10.9087 39.6587C10.9446 40.1696 10.7823 40.6804 10.4572 41.0793C10.2954 41.2791 10.0977 41.445 9.87562 41.5674C9.65349 41.6899 9.41131 41.7664 9.16306 41.7927C8.91482 41.8189 8.66542 41.7944 8.42926 41.7204C8.19311 41.6464 7.97488 41.5245 7.78717 41.3617C3.96301 38.0544 1.36429 33.4866 0.407362 28.3899C-0.549568 23.2933 0.190677 17.9629 2.5095 13.2527C4.82832 8.54252 8.59152 4.72517 13.1962 2.41225C17.8008 0.0993369 22.9804 -0.575284 27.9051 0.496474C32.8298 1.56823 37.2146 4.32433 40.357 8.32323C43.4993 12.3221 45.2174 17.3323 45.2359 22.5512C45.2544 27.7701 43.5723 32.8955 40.4591 37.1063C37.3459 41.3172 32.9817 44.3697 28.0658 45.7749Z" fill="#00C35B"/>
<path d="M15.2222 39.3435L6.07507 41.9564C5.58988 42.095 5.07676 42.0307 4.6486 41.7777C4.22044 41.5248 3.91231 41.1038 3.792 40.6074C3.67168 40.1111 3.74904 39.58 4.00705 39.131C4.26506 38.682 4.68258 38.3519 5.16778 38.2133L12.4855 36.123L10.6709 28.6369C10.5506 28.1405 10.6279 27.6094 10.886 27.1604C11.144 26.7114 11.5615 26.3813 12.0467 26.2427C12.5319 26.1042 13.045 26.1684 13.4732 26.4214C13.9013 26.6744 14.2094 27.0954 14.3298 27.5917L16.598 36.9494C16.7183 37.4458 16.641 37.9769 16.3829 38.4259C16.1249 38.8748 15.7074 39.2049 15.2222 39.3435Z" fill="#00C35B"/>
<path d="M18.9909 32.1156C18.7285 32.2091 18.4553 32.2442 18.1871 32.2189C17.9189 32.1937 17.661 32.1086 17.428 31.9685C17.1944 31.828 16.9905 31.6349 16.8282 31.4004C16.6659 31.1659 16.5483 30.8947 16.4823 30.6023C16.4163 30.3099 16.4031 30.0022 16.4436 29.6969C16.484 29.3916 16.5773 29.0947 16.718 28.8235L20.7798 20.9533L18.4846 10.7873C18.352 10.1999 18.4352 9.56311 18.7159 9.01695C18.9967 8.47079 19.4519 8.06003 19.9816 7.87505C20.5112 7.69006 21.0719 7.746 21.5401 8.03055C22.0084 8.31511 22.346 8.80497 22.4786 9.39237L24.9788 20.4664C25.0462 20.7574 25.061 21.0639 25.0226 21.3685C24.9841 21.673 24.8931 21.9696 24.7547 22.2412L20.2638 30.9781C20.1235 31.2485 19.9389 31.4882 19.7205 31.6834C19.502 31.8786 19.2541 32.0255 18.9909 32.1156Z" fill="#00C35B"/>
</svg>

<svg width="46" height="46" fill="none" xmlns="http://www.w3.org/2000/svg"><path d="M28.066 45.775a1.815 1.815 0 01-1.427-.179 1.861 1.861 0 01-.856-1.17 2.018 2.018 0 01.215-1.477 1.97 1.97 0 011.16-.917c4.098-1.17 7.736-3.713 10.331-7.221a20.328 20.328 0 003.984-12.13c-.014-4.349-1.445-8.524-4.063-11.858A18.07 18.07 0 0027.034 4.3c-4.104-.894-8.421-.333-12.259 1.594-3.837 1.928-6.974 5.109-8.907 9.034-1.932 3.925-2.55 8.367-1.752 12.615.797 4.247 2.963 8.054 6.15 10.81.376.326.607.796.643 1.307a2.03 2.03 0 01-1.033 1.908 1.888 1.888 0 01-.713.226 1.815 1.815 0 01-1.376-.431C3.963 38.054 1.364 33.487.407 28.39-.55 23.293.191 17.963 2.51 13.253c2.318-4.71 6.082-8.528 10.686-10.84C17.801.098 22.98-.576 27.906.495c4.924 1.072 9.309 3.828 12.451 7.827 3.142 4 4.86 9.01 4.879 14.228a24.394 24.394 0 01-4.777 14.555c-3.113 4.211-7.477 7.264-12.393 8.669z" fill="#00C35B"/><path d="M15.222 39.343l-9.147 2.613a1.815 1.815 0 01-1.426-.178 1.861 1.861 0 01-.857-1.17 2.018 2.018 0 01.215-1.477 1.97 1.97 0 011.16-.918l7.319-2.09-1.815-7.486a2.018 2.018 0 01.215-1.477 1.97 1.97 0 011.16-.917 1.816 1.816 0 011.427.178c.428.253.736.674.857 1.17l2.268 9.358a2.02 2.02 0 01-.215 1.477 1.97 1.97 0 01-1.16.917zm3.768-7.227a1.868 1.868 0 01-.803.103 1.795 1.795 0 01-.759-.25 1.962 1.962 0 01-.6-.569 2.285 2.285 0 01-.346-.798 2.658 2.658 0 01.236-1.779l4.062-7.87-2.295-10.166a2.637 2.637 0 01.23-1.77c.282-.546.737-.957 1.267-1.142a1.816 1.816 0 011.558.156c.468.284.806.774.939 1.361l2.5 11.074c.067.291.082.598.044.902-.039.305-.13.602-.268.873l-4.491 8.737c-.14.27-.325.51-.543.705a2.138 2.138 0 01-.73.433z" fill="#00C35B"/></svg>
